teams/dark/137.svg

<svg xmlns="http://www.w3.org/2000/svg" viewBox="0 0 300 300"><title>San Francisco Giants cap on dark logo</title><path fill="#fd5a1e" d="M163 257.19v7.39h-1.84v-7.39h-2.7v-1.62h7.25v1.62Zm13.19 7.39v-7.16h-.06l-2.59 7.16h-1.78l-2.52-7.16h-.06v7.16h-1.82v-9.01h3.18l2.08 5.88h.05l2.18-5.88h3.16v9.01Zm-35.04-127.24v23.45s29.8 1.92 38.93-3.61c-1.63 5.18-1.12 22.12 0 24.94-11.53-5.92-38.93-3.56-38.93-3.56v23.6h44.16l9.41-10.94v-40.44l-10.9-12.65c-6.48-.72-29.64-.8-42.66-.8ZM72.83 53.46C82 49.09 91.76 39.85 95.22 33.63c8.84 4.17 90.09 3.56 99.48 0 5.67 8.28 11.75 12.91 20.34 15.72-.8 7.95-.56 10.76 2.03 17.13H194.7l-9.39-10.49h-79.67L95.2 65.18v42.25l10.4 10.07 13.17.55c0-15.69.16-18.69-11.38-21.75 3.84-7.7 4.62-8.6 5.63-18.2 9.88 3.32 111.98 1.51 116.42-1.03-.71 10 4.94 29 8.73 36.08H215.8c-1.14-7.78-6.05-13.79-13.86-15.25h-60.79v20.15s47.3 1.29 53.55-.86c3.11 8.08 14.29 19.92 22.37 23.2-2.71 16.48-2.21 44.66 0 61.76-8.8 4.37-17.79 13.34-22.37 22.39-11.13-3.06-53.56-1.56-53.56-1.56v12.66c2.19 8.64 6.83 10.72 14.97 11.42 0 0-6.54 12.3-6.81 19.5h-38.23c-.17-7.02-6.82-19.5-6.82-19.5 7.35-.34 13.38-4.69 14.5-11.42v-12.66s-13.42-.5-23.56 1.56c-3.07-6.89-14.26-19.22-22.39-22.39 1.88-4.95 1.01-35.84-1.73-42.35h24.12l-.02 31.43 9.4 10.94h14.18v-64.82s-12.41-.61-23.56.23c-3.2-6.23-12.78-16.28-22.39-21.02 3-11.41 3.27-52.33 0-63.1Z"/></svg>

<svg width="300" height="300" viewBox="0 0 300 300" fill="none" xmlns="http://www.w3.org/2000/svg">
<path d="M141.15 137.34V160.79C141.15 160.79 170.95 162.71 180.08 157.18C178.45 162.36 178.96 179.3 180.08 182.12C168.55 176.2 141.15 178.56 141.15 178.56V202.16H185.31L194.72 191.22V150.78L183.82 138.13C177.34 137.41 154.18 137.33 141.16 137.33L141.15 137.34ZM72.83 53.46C82 49.09 91.76 39.85 95.22 33.63C104.06 37.8 185.31 37.19 194.7 33.63C200.37 41.91 206.45 46.54 215.04 49.35C214.24 57.3 214.48 60.11 217.07 66.48H194.7L185.31 55.99H105.64L95.2 65.18V107.43L105.6 117.5L118.77 118.05C118.77 102.36 118.93 99.36 107.39 96.3C111.23 88.6 112.01 87.7 113.02 78.1C122.9 81.42 225 79.61 229.44 77.07C228.73 87.07 234.38 106.07 238.17 113.15H215.8C214.66 105.37 209.75 99.36 201.94 97.9H141.15V118.05C141.15 118.05 188.45 119.34 194.7 117.19C197.81 125.27 208.99 137.11 217.07 140.39C214.36 156.87 214.86 185.05 217.07 202.15C208.27 206.52 199.28 215.49 194.7 224.54C183.57 221.48 141.14 222.98 141.14 222.98V235.64C143.33 244.28 147.97 246.36 156.11 247.06C156.11 247.06 149.57 259.36 149.3 266.56H111.07C110.9 259.54 104.25 247.06 104.25 247.06C111.6 246.72 117.63 242.37 118.75 235.64V222.98C118.75 222.98 105.33 222.48 95.19 224.54C92.12 217.65 80.93 205.32 72.8 202.15C74.68 197.2 73.81 166.31 71.07 159.8H95.19L95.17 191.23L104.57 202.17H118.75V137.35C118.75 137.35 106.34 136.74 95.19 137.58C91.99 131.35 82.41 121.3 72.8 116.56C75.8 105.15 76.07 64.23 72.8 53.46H72.83Z" fill="#FD5A1E"/>
</svg>
